packages/icons/svgs/duotone/Source=c-remove.svg

<svg width="24" height="24" viewBox="0 0 24 24" fill="none" xmlns="http://www.w3.org/2000/svg">
<g clip-path="url(#clip0_901_692)">
<path fill-rule="evenodd" clip-rule="evenodd" d="M16.7071 7.29289C17.0976 7.68342 17.0976 8.31658 16.7071 8.70711L8.70711 16.7071C8.31658 17.0976 7.68342 17.0976 7.29289 16.7071C6.90237 16.3166 6.90237 15.6834 7.29289 15.2929L15.2929 7.29289C15.6834 6.90237 16.3166 6.90237 16.7071 7.29289Z" fill="black" style="fill:black;fill-opacity:1;"/>
<path fill-rule="evenodd" clip-rule="evenodd" d="M7.29289 7.29289C7.68342 6.90237 8.31658 6.90237 8.70711 7.29289L16.7071 15.2929C17.0976 15.6834 17.0976 16.3166 16.7071 16.7071C16.3166 17.0976 15.6834 17.0976 15.2929 16.7071L7.29289 8.70711C6.90237 8.31658 6.90237 7.68342 7.29289 7.29289Z" fill="black" style="fill:black;fill-opacity:1;"/>
<path opacity="0.5" fill-rule="evenodd" clip-rule="evenodd" d="M12 2C6.47715 2 2 6.47715 2 12C2 17.5228 6.47715 22 12 22C17.5228 22 22 17.5228 22 12C22 6.47715 17.5228 2 12 2ZM0 12C0 5.37258 5.37258 0 12 0C18.6274 0 24 5.37258 24 12C24 18.6274 18.6274 24 12 24C5.37258 24 0 18.6274 0 12Z" fill="black" style="fill:black;fill-opacity:1;"/>
</g>
<defs>
<clipPath id="clip0_901_692">
<rect width="24" height="24" fill="white" style="fill:white;fill-opacity:1;"/>
</clipPath>
</defs>
</svg>

<svg xmlns="http://www.w3.org/2000/svg" width="24" height="24" viewBox="0 0 24 24"><g fill-rule="evenodd" clip-path="url(#a)" clip-rule="evenodd"><path d="M16.707 7.293a1 1 0 0 1 0 1.414l-8 8a1 1 0 0 1-1.414-1.414l8-8a1 1 0 0 1 1.414 0"/><path d="M7.293 7.293a1 1 0 0 1 1.414 0l8 8a1 1 0 0 1-1.414 1.414l-8-8a1 1 0 0 1 0-1.414"/><path d="M12 2C6.477 2 2 6.477 2 12s4.477 10 10 10 10-4.477 10-10S17.523 2 12 2M0 12C0 5.373 5.373 0 12 0s12 5.373 12 12-5.373 12-12 12S0 18.627 0 12" opacity=".55"/></g><defs><clipPath id="a"><path fill="#fff" d="M0 0h24v24H0z"/></clipPath></defs></svg>
